X:323
T:Polska efter Bruun
T:(Bruunboken 44)
R:Polska
Z:Jonas Brunskog, 1/7 2008
O:Särslöv, Skåne
S:efter Johan Jacob Bruun
B:[[Notböcker/Bruunboken]], [[!Omtyckta Skånska Allspelslåtar]]
B:Jämför [[http://www.smus.se/earkiv/fmk/browselarge.php?lang=sw&katalogid=Ske+30&bildnr=00025|SMUS - katalog Ske30 bild 25]]
N:Bruunboken 44
M:3/4
L:1/8
K:Dm
|:fe (3d^cd A2|^c>d (3efg a2|abageg|fe (3d^cd A2|
fe (3d^cd A2|^c>d (3efg a2|abageg|gf d2 d2:|
|: a2 fafa|agegeg|fedefg|a^cdefg|
a2 fafa|agegeg|fedefg|a^c d2 d2:|
(:musicend:)

(:music:)
